icon-themes/sifr_svg/cmd/sc_flowchartshapes.flowchart-delay.svg

<svg viewBox="0 0 16 16" xmlns="http://www.w3.org/2000/svg"><g fill="#555753"><path d="m2 3v10h9a3 5 0 0 0 3-5 3 5 0 0 0 -3-5z" opacity=".35"/><path d="m1 2v1 11h10c1.278794 0 2.320167-.851972 2.978516-1.949219.658348-1.097247 1.021484-2.5079371 1.021484-4.050781s-.363136-2.9535342-1.021484-4.0507812c-.658349-1.0972471-1.699722-1.9492188-2.978516-1.9492188zm2 2h8c.37806 0 .836234.2661186 1.263672.9785156s.736328 1.8029046.736328 3.0214844-.30889 2.309087-.736328 3.021484-.885612.978516-1.263672.978516h-8z"/></g></svg>

<svg xmlns="http://www.w3.org/2000/svg" viewBox="0 0 16 16">
  <path
     style="opacity:0.35;fill:#555753"
     d="M 2 3 L 2 13 L 11 13 A 3 5 0 0 0 14 8 A 3 5 0 0 0 11 3 L 2 3 z "
     />
  <path
     style="fill:#555753"
     d="m 1,2 v 1 11 h 10 c 1.278794,0 2.320167,-0.851972 2.978516,-1.949219 C 14.636864,10.953534 15,9.5428439 15,8 15,6.4571561 14.636864,5.0464658 13.978516,3.9492188 13.320167,2.8519717 12.278794,2 11,2 Z m 2,2 h 8 c 0.37806,0 0.836234,0.2661186 1.263672,0.9785156 C 12.69111,5.6909126 13,6.7814202 13,8 13,9.2185798 12.69111,10.309087 12.263672,11.021484 11.836234,11.733881 11.37806,12 11,12 H 3 Z"
     />
</svg>
